loleaflet/images/lc_deletecolumnbreak.svg

<svg viewBox="0 0 24 24" xmlns="http://www.w3.org/2000/svg"><path d="m5 3v18h2.8359375l1.5-1.5-3.0429687-3.042969a.99983288.99983288 0 0 1 0-1.414062l.75-.75a.99983288.99983288 0 0 1 .6914062-.292969.99983288.99983288 0 0 1 .7226562.292969l3.0429688 3.042969 3.042969-3.042969a.99983288.99983288 0 0 1 1.414062 0l.75.75a.99983288.99983288 0 0 1 0 1.414062l-3.042969 3.042969 1.5 1.5h4.835938v-18z" fill="#fafafa"/><path d="m6.5 5c-.277 0-.5.223-.5.5s.223.5.5.5h4c.277 0 .5-.223.5-.5s-.223-.5-.5-.5zm0 4c-.277 0-.5.223-.5.5s.223.5.5.5h4c.277 0 .5-.223.5-.5s-.223-.5-.5-.5zm8 0c-.277 0-.5.223-.5.5s.223.5.5.5h4c.277 0 .5-.223.5-.5s-.223-.5-.5-.5zm-8 3c-.277 0-.5.223-.5.5s.223.5.5.5h4c.277 0 .5-.223.5-.5s-.223-.5-.5-.5zm8 0c-.277 0-.5.223-.5.5s.223.5.5.5h4c.277 0 .5-.223.5-.5s-.223-.5-.5-.5zm-5.3359375 3 .9999995 1h.335938c.277 0 .5-.223.5-.5s-.223-.5-.5-.5zm7.4999995 0 .042969.042969a.99983288.99983288 0 0 1 .259766.957031h1.533203c.277 0 .5-.223.5-.5s-.223-.5-.5-.5zm-10.3808589.052734c-.1668847.080832-.2832031.248734-.2832031.447266 0 .0277.011334.051674.015625.078125a.99983288.99983288 0 0 1 .2675781-.525391zm8.8808589 2.947266-.919921.919922c.075857.046296.160126.080078.255859.080078h4c.277 0 .5-.223.5-.5s-.223-.5-.5-.5z" fill="#797774"/><path d="m12.5 5c-.277 0-.5.223-.5.5v11.335938l1-1v-9.835938h3.5c.277 0 .5-.223.5-.5s-.223-.5-.5-.5zm-4.4492188 13.214844c-.0293146.055544-.0507812.11621-.0507812.183594v.203124c0 .220663.1777765.398438.3984375.398438h.4375z" fill="#ed3d3b"/><path d="m5 2c-.554 0-1 .446-1 1v18c0 .554.446 1 1 1h1.8359375l1-1h-2.8359375v-18h15v18h-4.835938l1 1h3.835938c.554 0 1-.446 1-1v-18c0-.554-.446-1-1-1zm6.5 19.664062-.335938.335938h.671876z" fill="#3a3a38"/><path d="m15.25 15-3.75 3.75-3.75-3.75-.75.75 3.75 3.75-3.75 3.75.75.75 3.75-3.75 3.75 3.75.75-.75-3.75-3.75 3.75-3.75z" fill="#ed3d3b"/></svg>

<?xml version="1.0" encoding="UTF-8" standalone="no"?>
<svg
   xmlns:dc="http://purl.org/dc/elements/1.1/"
   xmlns:cc="http://creativecommons.org/ns#"
   xmlns:rdf="http://www.w3.org/1999/02/22-rdf-syntax-ns#"
   xmlns:svg="http://www.w3.org/2000/svg"
   xmlns="http://www.w3.org/2000/svg"
   xmlns:sodipodi="http://sodipodi.sourceforge.net/DTD/sodipodi-0.dtd"
   xmlns:inkscape="http://www.inkscape.org/namespaces/inkscape"
   viewBox="0 0 24 24"
   version="1.1"
   id="svg10"
   sodipodi:docname="lc_deletecolumnbreak.svg"
   inkscape:version="0.92.5 (2060ec1f9f, 2020-04-08)">
  <metadata
     id="metadata16">
    <rdf:RDF>
      <cc:Work
         rdf:about="">
        <dc:format>image/svg+xml</dc:format>
        <dc:type
           rdf:resource="http://purl.org/dc/dcmitype/StillImage" />
        <dc:title></dc:title>
      </cc:Work>
    </rdf:RDF>
  </metadata>
  <defs
     id="defs14" />
  <sodipodi:namedview
     pagecolor="#ffffff"
     bordercolor="#666666"
     borderopacity="1"
     objecttolerance="10"
     gridtolerance="10"
     guidetolerance="10"
     inkscape:pageopacity="0"
     inkscape:pageshadow="2"
     inkscape:window-width="1366"
     inkscape:window-height="700"
     id="namedview12"
     showgrid="true"
     inkscape:snap-global="false"
     inkscape:zoom="8"
     inkscape:cx="22.044559"
     inkscape:cy="5.9065881"
     inkscape:window-x="0"
     inkscape:window-y="0"
     inkscape:window-maximized="1"
     inkscape:current-layer="svg10">
    <inkscape:grid
       type="xygrid"
       id="grid829" />
  </sodipodi:namedview>
  <path
     style="fill:#fafafa"
     d="M 5 3 L 5 21 L 7.8359375 21 L 9.3359375 19.5 L 6.2929688 16.457031 A 0.99983288 0.99983288 0 0 1 6.2929688 15.042969 L 7.0429688 14.292969 A 0.99983288 0.99983288 0 0 1 7.734375 14 A 0.99983288 0.99983288 0 0 1 8.4570312 14.292969 L 11.5 17.335938 L 14.542969 14.292969 A 0.99983288 0.99983288 0 0 1 15.957031 14.292969 L 16.707031 15.042969 A 0.99983288 0.99983288 0 0 1 16.707031 16.457031 L 13.664062 19.5 L 15.164062 21 L 20 21 L 20 3 L 5 3 z "
     id="path2" />
  <path
     d="M 6.5 5 C 6.223 5 6 5.223 6 5.5 C 6 5.777 6.223 6 6.5 6 L 10.5 6 C 10.777 6 11 5.777 11 5.5 C 11 5.223 10.777 5 10.5 5 L 6.5 5 z M 6.5 9 C 6.223 9 6 9.223 6 9.5 C 6 9.777 6.223 10 6.5 10 L 10.5 10 C 10.777 10 11 9.777 11 9.5 C 11 9.223 10.777 9 10.5 9 L 6.5 9 z M 14.5 9 C 14.223 9 14 9.223 14 9.5 C 14 9.777 14.223 10 14.5 10 L 18.5 10 C 18.777 10 19 9.777 19 9.5 C 19 9.223 18.777 9 18.5 9 L 14.5 9 z M 6.5 12 C 6.223 12 6 12.223 6 12.5 C 6 12.777 6.223 13 6.5 13 L 10.5 13 C 10.777 13 11 12.777 11 12.5 C 11 12.223 10.777 12 10.5 12 L 6.5 12 z M 14.5 12 C 14.223 12 14 12.223 14 12.5 C 14 12.777 14.223 13 14.5 13 L 18.5 13 C 18.777 13 19 12.777 19 12.5 C 19 12.223 18.777 12 18.5 12 L 14.5 12 z M 9.1640625 15 L 10.164062 16 L 10.5 16 C 10.777 16 11 15.777 11 15.5 C 11 15.223 10.777 15 10.5 15 L 9.1640625 15 z M 16.664062 15 L 16.707031 15.042969 A 0.99983288 0.99983288 0 0 1 16.966797 16 L 18.5 16 C 18.777 16 19 15.777 19 15.5 C 19 15.223 18.777 15 18.5 15 L 16.664062 15 z M 6.2832031 15.052734 C 6.1163184 15.133566 6 15.301468 6 15.5 C 6 15.5277 6.011334 15.551674 6.015625 15.578125 A 0.99983288 0.99983288 0 0 1 6.2832031 15.052734 z M 15.164062 18 L 14.244141 18.919922 C 14.319998 18.966218 14.404267 19 14.5 19 L 18.5 19 C 18.777 19 19 18.777 19 18.5 C 19 18.223 18.777 18 18.5 18 L 15.164062 18 z "
     id="path4"
     style="fill:#797774" />
  <path
     d="M 12.5 5 C 12.223 5 12 5.223 12 5.5 L 12 16.835938 L 13 15.835938 L 13 6 L 16.5 6 C 16.777 6 17 5.777 17 5.5 C 17 5.223 16.777 5 16.5 5 L 12.5 5 z M 8.0507812 18.214844 C 8.0214666 18.270388 8 18.331054 8 18.398438 L 8 18.601562 C 8 18.822225 8.1777765 19 8.3984375 19 L 8.8359375 19 L 8.0507812 18.214844 z "
     id="path6"
     style="fill:#ed3d3b" />
  <path
     d="M 5 2 C 4.446 2 4 2.446 4 3 L 4 21 C 4 21.554 4.446 22 5 22 L 6.8359375 22 L 7.8359375 21 L 5 21 L 5 3 L 20 3 L 20 21 L 15.164062 21 L 16.164062 22 L 20 22 C 20.554 22 21 21.554 21 21 L 21 3 C 21 2.446 20.554 2 20 2 L 5 2 z M 11.5 21.664062 L 11.164062 22 L 11.835938 22 L 11.5 21.664062 z "
     id="path8"
     style="fill:#3a3a38" />
  <path
     inkscape:connector-curvature="0"
     d="M 15.25,15 11.5,18.75 7.75,15 7,15.75 10.75,19.5 7,23.25 7.75,24 11.5,20.25 15.25,24 16,23.25 12.25,19.5 16,15.75 Z"
     id="path12"
     style="fill:#ed3d3b" />
</svg>
